X:1
T:O sleep, fond fancy - Morley
T:#
%%score [ 1 2 3 ]
L:1/8
Q:1/4=120
M:2/2
K:D
V:1 treble nm="Soprano I"
V:2 treble nm="Soprano II"
V:3 bass nm="Bass" snm="B"
V:1
 A8- |"^O sleep, fond fancy" A8 | G6 G2 | G2 G2 A4 | B2 B2"^Thomas Morley\n(1557-1603)" d4 | %5
w: O||sleep, O|sleep, fond fan-|cy, O sleep,|
[M:2/2] z2 B2 d4 | z2 B2 B2 =c2 | (d=cBA BAGF | E2 D2 E4) | F4 A4 | B3 A G2 F2 | E4 E2 E2 | %12
w: O sleep,|O sleep, fond|fan\- * * * * * * *||cy. My|head, a- las, thou|ti- rest with|
 A3 G F3 B | A4 G4 | G2 F2 (F2 ED | E8) | F8 | z4 F4- | F4 E4- | E4 D4 | E2 G2 F4 | G4 z2 G2 | %22
w: false de- light of|that which|thou de- si\- * *||rest.|Sleep,|* sleep,|* I|say, fond fan-|cy, and|
 F3 F E2 D2 | C4 C4 | z2 A2 B2 F2 | G2 A2 B2 F2 | G3 F E2 D2 | C2 D2 (D2 C2) | D2 A2 B2 F2 | %29
w: leave my thoughts mo-|lest- ing.|Thy mas- ter's|head hath need of|sleep, hath need of|sleep and rest\- *|ing, thy mas- ter's|
 G2 A2 B2 F2 | G2 z4 d2 | e2 B2 =c2 d2 | e2 B2 =c2 G2 | E2 F2 E4 | F4 F4- | F4 E4- | %36
w: head hath need of|sleep, thy|mas- ter's head hath|need of sleep, of|sleep and rest-|ing, of|* sleep|
[Q:1/4=119] E2[Q:1/4=117] D2[Q:1/4=115] (D4- |[Q:1/4=112] D4[Q:1/4=109] C4) |[Q:1/4=108] D8 |] %39
w: * and rest\-||ing.|
V:2
 z4 F4- | F4 E4- | E4 D4 | E2 G2 F4 | G4 z2 B2 |[M:2/2] d4 z2 B2 | d2 G2 G2 A2 | (BAGF GFED | %8
w: O|* sleep,|* O|sleep, fond fan-|cy, O|sleep, O|sleep, O sleep, fond|fan\- * * * * * * *|
 C2 D4 C2) | D4 F4 | G3 F E2 D2 | C4 C2 C2 | F3 B A3 G | F4 E4 | E2 D2 (D4- | D2 CB, C4) | D8 | %17
w: |cy. My|head, a- las, thou|ti- rest with|false de- light of|that which|thou de- si\-||rest.|
 A8- | A8 | G6 G2 | G2 G2 A4 | B4 z2 B2 | A3 A G2 F2 | E4 E4 | z4 z2 A2 | B2 F2 G2 A2 | %26
w: Sleep,||sleep, I|say, fond fan-|cy, and|leave my thoughts mo-|lest- ing.|Thy|mas- ter's head hath|
 B3 A G2 F2 | E2 D2 E4 | F4 z2 A2 | B2 F2 G2 A2 | B2 F2 G2 z2 | z2 d2 e2 B2 | =c2 d2 e2 d2 | %33
w: need of sleep, of|sleep and rest-|ing, thy|mas- ter's head hath|need of sleep,|thy mas- ter's|head hath need of|
 c2 d2 (d2 c2) | d4 A4 | G8- | G4 F4 | E8 | F8 |] %39
w: sleep and rest- *|ing, of|sleep|* and|rest-|ing.|
V:3
 z4 D4- | D4 =C4- | C4 B,4 | =C2 E2 D4 | G,4 z2 G,2 |[M:2/2] G,4 z2 D,2 | G,8- | G,4 G,4 | A,8 | %9
w: O|* sleep,|* O|sleep, fond fan-|cy, O|sleep, O|sleep,|* fond|fan-|
 D,4 D,4 | G,3 A, =C2 D2 | A,4 A,2 A,2 | F,3 G, D,3 E, | F,4 G,4 | A,4 B,4 | A,8 | D,8 | z4 D4- | %18
w: cy. My|head, a- las, thou|ti- rest with|false de- light of|that which|thou de-|si-|rest.|Sleep,|
 D4 =C4- | C4 B,4 | =C2 E2 D4 | G,4 z2 G,2 | D3 A, =C2 D2 | A,4 A,2 A,2 | B,2 F,2 G,2 D2 | %25
w: * sleep,|* I|say, fond fan-|cy, and|leave my thoughts mo-|lest- ing. Thy|mas- ter's head hath|
 G,2 D,2 G,2 D,2 | G,4 G,4 | A,8 | D,8 | z8 | z2 D2 E2 B,2 | =C2 G,2 C2 G,2 | =C,2 G,2 =C2 B,2 | %33
w: need, hath need of|sleep and|rest-|ing,||thy mas- ter's|head hath need, hath|need of sleep and|
 A,8 | D,4 D,4 | G,4 G,4 | A,8- | A,8 | D,8 |] %39
w: rest-|ing, of|sleep and|rest\-||ing.|

